X: 15537
T: Glenties, The
R: mazurka
M: 3/4
K: Gmajor
|AB de fg|a2 f2 a2|g2 e2 g2|fg fe dB|
AB de fg|a2 f2 a2|g2 f2 g2|f6|
AB de fg|(3aba f2 a2|(3gag e2 g2|fg fe dB|
AB de fg|a2 f2 a2|g2 e2 c2|d6||

